<?xml version="1.0" encoding="UTF-8"?>
<map version="1.10" tiledversion="1.12.2" orientation="orthogonal" renderorder="right-down" width="15" height="10" tilewidth="16" tileheight="16" infinite="0" nextlayerid="2" nextobjectid="1">
 <tileset firstgid="1" name="05006E3D" tilewidth="16" tileheight="16" tilecount="1024" columns="32">
  <image source="../TiledStuff/05006E3D.png" trans="ffffff" width="512" height="512"/>
 </tileset>
 <layer id="1" name="Tile Layer 1" width="15" height="10">
  <properties>
   <property name="Anims1" value="TreeAnimationID"/>
   <property name="Anims2" value="0"/>
   <property name="ChapterID" value="EggRoomCh"/>
   <property name="Main" value=""/>
   <property name="MapID" value="EggRoomMap"/>
   <property name="ObjectType" value="EggRoomObj"/>
   <property name="PaletteID" value="EggRoomPal"/>
   <property name="TileConfig" value="EggRoomConf"/>
  </properties>
  <data>
   <tile gid="219"/>
   <tile gid="219"/>
   <tile gid="219"/>
   <tile gid="219"/>
   <tile gid="219"/>
   <tile gid="219"/>
   <tile gid="219"/>
   <tile gid="219"/>
   <tile gid="219"/>
   <tile gid="219"/>
   <tile gid="219"/>
   <tile gid="219"/>
   <tile gid="219"/>
   <tile gid="219"/>
   <tile gid="219"/>
   <tile gid="219"/>
   <tile gid="219"/>
   <tile gid="219"/>
   <tile gid="219"/>
   <tile gid="219"/>
   <tile gid="219"/>
   <tile gid="189"/>
   <tile gid="190"/>
   <tile gid="191"/>
   <tile gid="219"/>
   <tile gid="219"/>
   <tile gid="219"/>
   <tile gid="219"/>
   <tile gid="219"/>
   <tile gid="219"/>
   <tile gid="219"/>
   <tile gid="219"/>
   <tile gid="219"/>
   <tile gid="219"/>
   <tile gid="219"/>
   <tile gid="220"/>
   <tile gid="221"/>
   <tile gid="222"/>
   <tile gid="223"/>
   <tile gid="224"/>
   <tile gid="219"/>
   <tile gid="219"/>
   <tile gid="219"/>
   <tile gid="219"/>
   <tile gid="219"/>
   <tile gid="219"/>
   <tile gid="219"/>
   <tile gid="219"/>
   <tile gid="219"/>
   <tile gid="187"/>
   <tile gid="252"/>
   <tile gid="253"/>
   <tile gid="254"/>
   <tile gid="255"/>
   <tile gid="256"/>
   <tile gid="188"/>
   <tile gid="219"/>
   <tile gid="219"/>
   <tile gid="219"/>
   <tile gid="219"/>
   <tile gid="219"/>
   <tile gid="219"/>
   <tile gid="219"/>
   <tile gid="219"/>
   <tile gid="187"/>
   <tile gid="251"/>
   <tile gid="285"/>
   <tile gid="286"/>
   <tile gid="287"/>
   <tile gid="288"/>
   <tile gid="188"/>
   <tile gid="219"/>
   <tile gid="219"/>
   <tile gid="219"/>
   <tile gid="219"/>
   <tile gid="219"/>
   <tile gid="219"/>
   <tile gid="219"/>
   <tile gid="219"/>
   <tile gid="187"/>
   <tile gid="251"/>
   <tile gid="317"/>
   <tile gid="318"/>
   <tile gid="319"/>
   <tile gid="251"/>
   <tile gid="188"/>
   <tile gid="219"/>
   <tile gid="219"/>
   <tile gid="219"/>
   <tile gid="219"/>
   <tile gid="219"/>
   <tile gid="219"/>
   <tile gid="219"/>
   <tile gid="219"/>
   <tile gid="219"/>
   <tile gid="251"/>
   <tile gid="251"/>
   <tile gid="251"/>
   <tile gid="251"/>
   <tile gid="251"/>
   <tile gid="219"/>
   <tile gid="219"/>
   <tile gid="219"/>
   <tile gid="219"/>
   <tile gid="219"/>
   <tile gid="219"/>
   <tile gid="219"/>
   <tile gid="219"/>
   <tile gid="219"/>
   <tile gid="219"/>
   <tile gid="219"/>
   <tile gid="187"/>
   <tile gid="251"/>
   <tile gid="188"/>
   <tile gid="219"/>
   <tile gid="219"/>
   <tile gid="219"/>
   <tile gid="219"/>
   <tile gid="219"/>
   <tile gid="219"/>
   <tile gid="219"/>
   <tile gid="219"/>
   <tile gid="219"/>
   <tile gid="219"/>
   <tile gid="219"/>
   <tile gid="219"/>
   <tile gid="187"/>
   <tile gid="251"/>
   <tile gid="188"/>
   <tile gid="219"/>
   <tile gid="219"/>
   <tile gid="219"/>
   <tile gid="219"/>
   <tile gid="219"/>
   <tile gid="219"/>
   <tile gid="219"/>
   <tile gid="219"/>
   <tile gid="219"/>
   <tile gid="219"/>
   <tile gid="219"/>
   <tile gid="219"/>
   <tile gid="187"/>
   <tile gid="251"/>
   <tile gid="188"/>
   <tile gid="219"/>
   <tile gid="219"/>
   <tile gid="219"/>
   <tile gid="219"/>
   <tile gid="219"/>
   <tile gid="219"/>
  </data>
 </layer>
</map>
