<?xml version="1.0" encoding="UTF-8"?>
<map version="1.10" tiledversion="1.12.2" orientation="orthogonal" renderorder="right-down" width="20" height="20" tilewidth="16" tileheight="16" infinite="0" nextlayerid="4" nextobjectid="1">
 <tileset firstgid="1" name="01000203" tilewidth="16" tileheight="16" tilecount="1024" columns="32">
  <image source="../01000203.png" trans="ffffff" width="512" height="512"/>
 </tileset>
 <tileset firstgid="1025" name="EggRoom" tilewidth="8" tileheight="8" tilecount="4096" columns="64">
  <image source="../TiledStuff/05006E3D.png" width="512" height="512"/>
 </tileset>
 <layer id="1" name="Tile Layer 1" width="20" height="20">
  <properties>
   <property name="ChapterID" value="RosieTestCh"/>
   <property name="Main" value=""/>
   <property name="MapChangesID" value="RosieTestMapChanges"/>
   <property name="MapID" value="RosieTestMap"/>
   <property name="ObjectType" value="FieldsObj"/>
   <property name="PaletteID" value="FieldsPal"/>
   <property name="TileConfig" value="FieldsConf"/>
  </properties>
  <data>
   <tile gid="560"/>
   <tile gid="588"/>
   <tile gid="452"/>
   <tile gid="550"/>
   <tile gid="424"/>
   <tile gid="498"/>
   <tile gid="685"/>
   <tile gid="686"/>
   <tile gid="784"/>
   <tile gid="783"/>
   <tile gid="100"/>
   <tile gid="721"/>
   <tile gid="99"/>
   <tile gid="99"/>
   <tile gid="100"/>
   <tile gid="784"/>
   <tile gid="99"/>
   <tile gid="783"/>
   <tile gid="783"/>
   <tile gid="627"/>
   <tile gid="783"/>
   <tile gid="560"/>
   <tile gid="460"/>
   <tile gid="583"/>
   <tile gid="425"/>
   <tile gid="430"/>
   <tile gid="720"/>
   <tile gid="680"/>
   <tile gid="724"/>
   <tile gid="721"/>
   <tile gid="783"/>
   <tile gid="721"/>
   <tile gid="165"/>
   <tile gid="99"/>
   <tile gid="712"/>
   <tile gid="787"/>
   <tile gid="851"/>
   <tile gid="819"/>
   <tile gid="99"/>
   <tile gid="99"/>
   <tile gid="165"/>
   <tile gid="779"/>
   <tile gid="425"/>
   <tile gid="552"/>
   <tile gid="457"/>
   <tile gid="497"/>
   <tile gid="131"/>
   <tile gid="784"/>
   <tile gid="819"/>
   <tile gid="131"/>
   <tile gid="712"/>
   <tile gid="722"/>
   <tile gid="686"/>
   <tile gid="99"/>
   <tile gid="99"/>
   <tile gid="721"/>
   <tile gid="783"/>
   <tile gid="850"/>
   <tile gid="721"/>
   <tile gid="163"/>
   <tile gid="686"/>
   <tile gid="753"/>
   <tile gid="459"/>
   <tile gid="583"/>
   <tile gid="588"/>
   <tile gid="658"/>
   <tile gid="819"/>
   <tile gid="68"/>
   <tile gid="784"/>
   <tile gid="721"/>
   <tile gid="99"/>
   <tile gid="816"/>
   <tile gid="99"/>
   <tile gid="99"/>
   <tile gid="721"/>
   <tile gid="722"/>
   <tile gid="783"/>
   <tile gid="783"/>
   <tile gid="163"/>
   <tile gid="721"/>
   <tile gid="680"/>
   <tile gid="560"/>
   <tile gid="523"/>
   <tile gid="586"/>
   <tile gid="454"/>
   <tile gid="514"/>
   <tile gid="498"/>
   <tile gid="680"/>
   <tile gid="100"/>
   <tile gid="165"/>
   <tile gid="99"/>
   <tile gid="721"/>
   <tile gid="99"/>
   <tile gid="132"/>
   <tile gid="785"/>
   <tile gid="724"/>
   <tile gid="850"/>
   <tile gid="67"/>
   <tile gid="67"/>
   <tile gid="100"/>
   <tile gid="100"/>
   <tile gid="779"/>
   <tile gid="523"/>
   <tile gid="551"/>
   <tile gid="486"/>
   <tile gid="620"/>
   <tile gid="581"/>
   <tile gid="546"/>
   <tile gid="498"/>
   <tile gid="685"/>
   <tile gid="784"/>
   <tile gid="68"/>
   <tile gid="784"/>
   <tile gid="99"/>
   <tile gid="99"/>
   <tile gid="199"/>
   <tile gid="200"/>
   <tile gid="229"/>
   <tile gid="230"/>
   <tile gid="100"/>
   <tile gid="100"/>
   <tile gid="783"/>
   <tile gid="749"/>
   <tile gid="616"/>
   <tile gid="556"/>
   <tile gid="417"/>
   <tile gid="551"/>
   <tile gid="425"/>
   <tile gid="593"/>
   <tile gid="721"/>
   <tile gid="100"/>
   <tile gid="100"/>
   <tile gid="67"/>
   <tile gid="99"/>
   <tile gid="99"/>
   <tile gid="231"/>
   <tile gid="232"/>
   <tile gid="783"/>
   <tile gid="163"/>
   <tile gid="100"/>
   <tile gid="685"/>
   <tile gid="784"/>
   <tile gid="755"/>
   <tile gid="560"/>
   <tile gid="418"/>
   <tile gid="619"/>
   <tile gid="561"/>
   <tile gid="752"/>
   <tile gid="685"/>
   <tile gid="721"/>
   <tile gid="209"/>
   <tile gid="274"/>
   <tile gid="200"/>
   <tile gid="99"/>
   <tile gid="99"/>
   <tile gid="818"/>
   <tile gid="721"/>
   <tile gid="99"/>
   <tile gid="99"/>
   <tile gid="100"/>
   <tile gid="580"/>
   <tile gid="581"/>
   <tile gid="691"/>
   <tile gid="753"/>
   <tile gid="459"/>
   <tile gid="529"/>
   <tile gid="721"/>
   <tile gid="163"/>
   <tile gid="99"/>
   <tile gid="100"/>
   <tile gid="99"/>
   <tile gid="231"/>
   <tile gid="232"/>
   <tile gid="783"/>
   <tile gid="99"/>
   <tile gid="721"/>
   <tile gid="99"/>
   <tile gid="99"/>
   <tile gid="783"/>
   <tile gid="100"/>
   <tile gid="588"/>
   <tile gid="417"/>
   <tile gid="619"/>
   <tile gid="584"/>
   <tile gid="747"/>
   <tile gid="561"/>
   <tile gid="818"/>
   <tile gid="163"/>
   <tile gid="163"/>
   <tile gid="99"/>
   <tile gid="99"/>
   <tile gid="99"/>
   <tile gid="99"/>
   <tile gid="132"/>
   <tile gid="99"/>
   <tile gid="632"/>
   <tile gid="571"/>
   <tile gid="571"/>
   <tile gid="631"/>
   <tile gid="721"/>
   <tile gid="464"/>
   <tile gid="425"/>
   <tile gid="430"/>
   <tile gid="593"/>
   <tile gid="653"/>
   <tile gid="783"/>
   <tile gid="99"/>
   <tile gid="15"/>
   <tile gid="99"/>
   <tile gid="99"/>
   <tile gid="721"/>
   <tile gid="131"/>
   <tile gid="100"/>
   <tile gid="163"/>
   <tile gid="99"/>
   <tile gid="600"/>
   <tile gid="598"/>
   <tile gid="836"/>
   <tile gid="601"/>
   <tile gid="99"/>
   <tile gid="560"/>
   <tile gid="748"/>
   <tile gid="593"/>
   <tile gid="721"/>
   <tile gid="99"/>
   <tile gid="99"/>
   <tile gid="71"/>
   <tile gid="104"/>
   <tile gid="99"/>
   <tile gid="680"/>
   <tile gid="754"/>
   <tile gid="99"/>
   <tile gid="99"/>
   <tile gid="721"/>
   <tile gid="163"/>
   <tile gid="99"/>
   <tile gid="600"/>
   <tile gid="571"/>
   <tile gid="630"/>
   <tile gid="99"/>
   <tile gid="751"/>
   <tile gid="164"/>
   <tile gid="808"/>
   <tile gid="809"/>
   <tile gid="810"/>
   <tile gid="132"/>
   <tile gid="47"/>
   <tile gid="99"/>
   <tile gid="99"/>
   <tile gid="686"/>
   <tile gid="653"/>
   <tile gid="163"/>
   <tile gid="164"/>
   <tile gid="721"/>
   <tile gid="99"/>
   <tile gid="99"/>
   <tile gid="99"/>
   <tile gid="99"/>
   <tile gid="99"/>
   <tile gid="99"/>
   <tile gid="686"/>
   <tile gid="783"/>
   <tile gid="840"/>
   <tile gid="841"/>
   <tile gid="842"/>
   <tile gid="99"/>
   <tile gid="99"/>
   <tile gid="99"/>
   <tile gid="99"/>
   <tile gid="680"/>
   <tile gid="100"/>
   <tile gid="163"/>
   <tile gid="132"/>
   <tile gid="721"/>
   <tile gid="99"/>
   <tile gid="99"/>
   <tile gid="99"/>
   <tile gid="99"/>
   <tile gid="686"/>
   <tile gid="783"/>
   <tile gid="99"/>
   <tile gid="100"/>
   <tile gid="872"/>
   <tile gid="873"/>
   <tile gid="874"/>
   <tile gid="163"/>
   <tile gid="261"/>
   <tile gid="262"/>
   <tile gid="99"/>
   <tile gid="100"/>
   <tile gid="100"/>
   <tile gid="165"/>
   <tile gid="166"/>
   <tile gid="166"/>
   <tile gid="99"/>
   <tile gid="721"/>
   <tile gid="133"/>
   <tile gid="133"/>
   <tile gid="784"/>
   <tile gid="58"/>
   <tile gid="99"/>
   <tile gid="99"/>
   <tile gid="99"/>
   <tile gid="397"/>
   <tile gid="99"/>
   <tile gid="99"/>
   <tile gid="293"/>
   <tile gid="294"/>
   <tile gid="163"/>
   <tile gid="783"/>
   <tile gid="653"/>
   <tile gid="163"/>
   <tile gid="99"/>
   <tile gid="721"/>
   <tile gid="163"/>
   <tile gid="164"/>
   <tile gid="131"/>
   <tile gid="163"/>
   <tile gid="816"/>
   <tile gid="92"/>
   <tile gid="818"/>
   <tile gid="164"/>
   <tile gid="100"/>
   <tile gid="397"/>
   <tile gid="99"/>
   <tile gid="131"/>
   <tile gid="99"/>
   <tile gid="99"/>
   <tile gid="67"/>
   <tile gid="100"/>
   <tile gid="686"/>
   <tile gid="783"/>
   <tile gid="100"/>
   <tile gid="132"/>
   <tile gid="722"/>
   <tile gid="783"/>
   <tile gid="99"/>
   <tile gid="132"/>
   <tile gid="58"/>
   <tile gid="476"/>
   <tile gid="131"/>
   <tile gid="783"/>
   <tile gid="132"/>
   <tile gid="397"/>
   <tile gid="370"/>
   <tile gid="270"/>
   <tile gid="99"/>
   <tile gid="45"/>
   <tile gid="72"/>
   <tile gid="163"/>
   <tile gid="680"/>
   <tile gid="819"/>
   <tile gid="117"/>
   <tile gid="54"/>
   <tile gid="59"/>
   <tile gid="100"/>
   <tile gid="100"/>
   <tile gid="100"/>
   <tile gid="26"/>
   <tile gid="478"/>
   <tile gid="133"/>
   <tile gid="783"/>
   <tile gid="68"/>
   <tile gid="394"/>
   <tile gid="306"/>
   <tile gid="178"/>
   <tile gid="200"/>
   <tile gid="165"/>
   <tile gid="103"/>
   <tile gid="46"/>
   <tile gid="721"/>
   <tile gid="60"/>
   <tile gid="476"/>
   <tile gid="477"/>
   <tile gid="25"/>
   <tile gid="100"/>
   <tile gid="685"/>
   <tile gid="783"/>
   <tile gid="721"/>
   <tile gid="24"/>
   <tile gid="164"/>
   <tile gid="100"/>
   <tile gid="100"/>
   <tile gid="100"/>
   <tile gid="165"/>
   <tile gid="165"/>
   <tile gid="239"/>
   <tile gid="140"/>
   <tile gid="68"/>
   <tile gid="783"/>
   <tile gid="100"/>
   <tile gid="26"/>
   <tile gid="478"/>
   <tile gid="23"/>
   <tile gid="722"/>
   <tile gid="653"/>
   <tile gid="99"/>
   <tile gid="99"/>
   <tile gid="721"/>
   <tile gid="784"/>
  </data>
 </layer>
 <layer id="3" name="Map Change 0" width="20" height="20">
  <properties>
   <property name="Height" type="int" value="1"/>
   <property name="ID" type="int" value="0"/>
   <property name="Width" type="int" value="1"/>
   <property name="X" type="int" value="3"/>
   <property name="Y" type="int" value="14"/>
  </properties>
  <data>
   <tile/>
   <tile/>
   <tile/>
   <tile/>
   <tile/>
   <tile/>
   <tile/>
   <tile/>
   <tile/>
   <tile/>
   <tile/>
   <tile/>
   <tile/>
   <tile/>
   <tile/>
   <tile/>
   <tile/>
   <tile/>
   <tile/>
   <tile/>
   <tile/>
   <tile/>
   <tile/>
   <tile/>
   <tile/>
   <tile/>
   <tile/>
   <tile/>
   <tile/>
   <tile/>
   <tile/>
   <tile/>
   <tile/>
   <tile/>
   <tile/>
   <tile/>
   <tile/>
   <tile/>
   <tile/>
   <tile/>
   <tile/>
   <tile/>
   <tile/>
   <tile/>
   <tile/>
   <tile/>
   <tile/>
   <tile/>
   <tile/>
   <tile/>
   <tile/>
   <tile/>
   <tile/>
   <tile/>
   <tile/>
   <tile/>
   <tile/>
   <tile/>
   <tile/>
   <tile/>
   <tile/>
   <tile/>
   <tile/>
   <tile/>
   <tile/>
   <tile/>
   <tile/>
   <tile/>
   <tile/>
   <tile/>
   <tile/>
   <tile/>
   <tile/>
   <tile/>
   <tile/>
   <tile/>
   <tile/>
   <tile/>
   <tile/>
   <tile/>
   <tile/>
   <tile/>
   <tile/>
   <tile/>
   <tile/>
   <tile/>
   <tile/>
   <tile/>
   <tile/>
   <tile/>
   <tile/>
   <tile/>
   <tile/>
   <tile/>
   <tile/>
   <tile/>
   <tile/>
   <tile/>
   <tile/>
   <tile/>
   <tile/>
   <tile/>
   <tile/>
   <tile/>
   <tile/>
   <tile/>
   <tile/>
   <tile/>
   <tile/>
   <tile/>
   <tile/>
   <tile/>
   <tile/>
   <tile/>
   <tile/>
   <tile/>
   <tile/>
   <tile/>
   <tile/>
   <tile/>
   <tile/>
   <tile/>
   <tile/>
   <tile/>
   <tile/>
   <tile/>
   <tile/>
   <tile/>
   <tile/>
   <tile/>
   <tile/>
   <tile/>
   <tile/>
   <tile/>
   <tile/>
   <tile/>
   <tile/>
   <tile/>
   <tile/>
   <tile/>
   <tile/>
   <tile/>
   <tile/>
   <tile/>
   <tile/>
   <tile/>
   <tile/>
   <tile/>
   <tile/>
   <tile/>
   <tile/>
   <tile/>
   <tile/>
   <tile/>
   <tile/>
   <tile/>
   <tile/>
   <tile/>
   <tile/>
   <tile/>
   <tile/>
   <tile/>
   <tile/>
   <tile/>
   <tile/>
   <tile/>
   <tile/>
   <tile/>
   <tile/>
   <tile/>
   <tile/>
   <tile/>
   <tile/>
   <tile/>
   <tile/>
   <tile/>
   <tile/>
   <tile/>
   <tile/>
   <tile/>
   <tile/>
   <tile/>
   <tile/>
   <tile/>
   <tile/>
   <tile/>
   <tile/>
   <tile/>
   <tile/>
   <tile/>
   <tile/>
   <tile/>
   <tile/>
   <tile/>
   <tile/>
   <tile/>
   <tile/>
   <tile/>
   <tile/>
   <tile/>
   <tile/>
   <tile/>
   <tile/>
   <tile/>
   <tile/>
   <tile/>
   <tile/>
   <tile/>
   <tile/>
   <tile/>
   <tile/>
   <tile/>
   <tile/>
   <tile/>
   <tile/>
   <tile/>
   <tile/>
   <tile/>
   <tile/>
   <tile/>
   <tile/>
   <tile/>
   <tile/>
   <tile/>
   <tile/>
   <tile/>
   <tile/>
   <tile/>
   <tile/>
   <tile/>
   <tile/>
   <tile/>
   <tile/>
   <tile/>
   <tile/>
   <tile/>
   <tile/>
   <tile/>
   <tile/>
   <tile/>
   <tile/>
   <tile/>
   <tile/>
   <tile/>
   <tile/>
   <tile/>
   <tile/>
   <tile/>
   <tile/>
   <tile/>
   <tile/>
   <tile/>
   <tile/>
   <tile/>
   <tile/>
   <tile/>
   <tile/>
   <tile/>
   <tile/>
   <tile/>
   <tile/>
   <tile/>
   <tile/>
   <tile/>
   <tile/>
   <tile/>
   <tile/>
   <tile/>
   <tile/>
   <tile/>
   <tile/>
   <tile/>
   <tile/>
   <tile/>
   <tile/>
   <tile/>
   <tile/>
   <tile/>
   <tile/>
   <tile/>
   <tile/>
   <tile/>
   <tile/>
   <tile gid="33"/>
   <tile/>
   <tile/>
   <tile/>
   <tile/>
   <tile/>
   <tile/>
   <tile/>
   <tile/>
   <tile/>
   <tile/>
   <tile/>
   <tile/>
   <tile/>
   <tile/>
   <tile/>
   <tile/>
   <tile/>
   <tile/>
   <tile/>
   <tile/>
   <tile/>
   <tile/>
   <tile/>
   <tile/>
   <tile/>
   <tile/>
   <tile/>
   <tile/>
   <tile/>
   <tile/>
   <tile/>
   <tile/>
   <tile/>
   <tile/>
   <tile/>
   <tile/>
   <tile/>
   <tile/>
   <tile/>
   <tile/>
   <tile/>
   <tile/>
   <tile/>
   <tile/>
   <tile/>
   <tile/>
   <tile/>
   <tile/>
   <tile/>
   <tile/>
   <tile/>
   <tile/>
   <tile/>
   <tile/>
   <tile/>
   <tile/>
   <tile/>
   <tile/>
   <tile/>
   <tile/>
   <tile/>
   <tile/>
   <tile/>
   <tile/>
   <tile/>
   <tile/>
   <tile/>
   <tile/>
   <tile/>
   <tile/>
   <tile/>
   <tile/>
   <tile/>
   <tile/>
   <tile/>
   <tile/>
   <tile/>
   <tile/>
   <tile/>
   <tile/>
   <tile/>
   <tile/>
   <tile/>
   <tile/>
   <tile/>
   <tile/>
   <tile/>
   <tile/>
   <tile/>
   <tile/>
   <tile/>
   <tile/>
   <tile/>
   <tile/>
   <tile/>
   <tile/>
   <tile/>
   <tile/>
   <tile/>
   <tile/>
   <tile/>
   <tile/>
   <tile/>
   <tile/>
   <tile/>
   <tile/>
   <tile/>
   <tile/>
   <tile/>
   <tile/>
   <tile/>
   <tile/>
   <tile/>
   <tile/>
   <tile/>
   <tile/>
  </data>
 </layer>
</map>
