<?xml version="1.0" encoding="UTF-8"?>
<map version="1.10" tiledversion="1.11.2" orientation="orthogonal" renderorder="right-down" width="46" height="30" tilewidth="8" tileheight="8" infinite="0" nextlayerid="2" nextobjectid="1">
 <tileset firstgid="1" name="MenuTiles" tilewidth="8" tileheight="8" tilecount="128" columns="16">
  <image source="MenuTiles.png" width="128" height="64"/>
 </tileset>
 <layer id="1" name="Tile Layer 1" width="46" height="30">
  <properties>
   <property name="PaletteID" type="int" value="0"/>
  </properties>
  <data encoding="csv">
17,18,19,20,4,4,4,4,4,4,4,5,6,98,99,50,51,52,5,6,1,1,1,1,1,1,1,1,1,1,98,99,4,4,4,4,4,4,5,6,1,1,1,1,1,1,
24,25,26,15,15,15,15,15,15,15,15,81,82,7,10,10,10,10,53,54,1,1,115,116,116,116,116,116,117,1,7,10,10,10,10,10,10,10,10,11,1,1,1,1,1,1,
12,15,15,15,15,15,15,15,15,15,81,83,84,7,10,10,10,53,55,56,1,1,118,10,10,10,10,10,119,1,7,44,45,45,45,45,45,45,46,11,1,1,1,1,1,1,
12,15,15,15,15,15,15,15,15,81,83,85,86,41,42,42,42,42,42,43,1,1,118,10,10,10,10,10,119,1,89,90,90,91,92,92,93,10,10,11,1,1,1,1,1,1,
12,15,15,15,15,15,15,15,81,83,85,87,88,41,42,42,42,42,42,43,1,1,118,10,10,10,10,10,119,1,7,10,10,94,95,95,96,10,10,11,1,1,1,1,1,1,
27,28,29,29,29,29,29,29,29,29,30,31,32,27,28,29,29,29,33,34,1,1,120,121,121,121,121,121,122,1,7,10,10,94,95,95,96,10,10,11,1,1,1,1,1,1,
98,99,4,4,4,4,4,4,4,4,4,5,6,1,1,1,1,1,1,1,1,1,1,1,1,1,1,1,1,1,7,10,10,94,95,95,96,10,10,11,1,1,1,1,1,1,
7,10,10,10,10,53,48,10,10,10,10,53,54,2,3,4,4,4,5,6,1,98,99,4,50,51,52,4,5,6,7,10,10,94,95,95,96,10,10,11,1,1,1,1,1,1,
7,10,10,10,53,55,48,10,10,10,53,55,56,8,9,10,10,10,10,11,1,7,10,10,10,10,10,10,53,54,7,10,10,94,95,95,96,10,10,11,1,1,1,1,1,1,
35,36,37,38,39,39,39,39,39,39,39,39,40,7,123,124,124,124,124,11,1,7,10,10,10,10,10,53,55,56,7,10,10,94,95,95,96,10,10,11,1,1,1,1,1,1,
7,44,45,45,45,45,45,45,45,45,45,46,11,7,10,10,10,10,10,11,1,27,28,29,29,29,29,29,33,34,7,10,10,127,3221225564,3221225564,3221225563,3221225562,3221225562,97,1,1,1,1,1,1,
7,10,10,10,10,10,10,10,10,10,10,10,11,7,10,10,10,10,10,11,1,1,1,1,1,1,1,1,1,1,7,10,10,10,10,10,10,10,10,11,1,1,1,1,1,1,
7,10,10,10,10,10,10,10,10,10,10,10,11,7,10,10,10,10,10,11,1,98,99,4,50,51,52,4,5,6,7,44,45,45,45,45,45,45,46,11,1,1,1,1,1,1,
7,10,10,10,10,10,10,10,10,10,10,63,64,7,10,10,10,10,10,11,1,7,10,10,10,10,10,10,63,64,7,10,10,10,10,10,10,10,53,54,1,1,1,1,1,1,
7,10,10,10,10,10,10,10,10,10,63,65,66,7,10,10,10,10,10,11,1,7,10,10,10,10,10,63,65,66,7,10,10,10,10,10,10,53,55,56,1,1,1,1,1,1,
7,10,10,10,10,10,10,10,10,63,65,67,68,7,10,10,10,10,10,11,1,7,10,10,10,10,63,65,67,68,27,28,29,29,29,29,29,29,33,34,1,1,1,1,1,1,
7,10,10,10,10,10,10,10,63,65,67,69,70,7,10,10,10,10,10,11,1,7,10,10,10,63,65,67,69,70,1,1,1,1,1,1,1,1,1,1,1,1,1,1,1,1,
27,28,29,29,29,29,29,29,29,29,29,33,34,27,28,29,29,29,33,34,1,27,28,29,29,29,29,29,33,34,1,1,1,1,1,1,1,1,1,1,1,1,1,1,1,1,
1,1,1,1,1,1,1,1,1,1,1,1,1,1,1,1,1,1,1,1,1,1,1,1,1,1,1,1,1,1,1,1,1,1,1,1,1,1,1,1,1,1,1,1,1,1,
98,99,4,4,4,4,4,4,4,4,4,5,6,98,99,4,4,4,4,4,4,4,4,4,4,4,4,4,5,6,1,1,1,1,1,1,1,1,1,1,1,1,1,1,1,1,
12,100,101,101,101,101,101,101,101,101,101,102,16,7,10,10,10,10,10,10,10,10,10,10,10,10,10,10,10,11,1,1,1,1,1,1,1,1,1,1,1,1,1,1,1,1,
103,104,104,104,104,104,104,104,104,104,104,104,105,7,10,10,10,10,10,10,10,10,10,10,10,10,10,10,10,11,1,1,1,1,1,1,1,1,1,1,1,1,1,1,1,1,
7,10,10,10,10,10,10,10,10,10,10,10,11,7,10,10,10,10,10,10,10,10,10,10,10,10,10,10,10,11,1,1,1,1,1,1,1,1,1,1,1,1,1,1,1,1,
7,10,10,10,10,10,10,10,10,10,10,10,11,7,10,10,10,10,10,10,10,10,10,10,10,10,10,10,10,11,1,1,1,1,1,1,1,1,1,1,1,1,1,1,1,1,
27,28,29,29,29,29,29,29,29,29,29,33,34,27,28,29,29,29,29,29,29,29,29,29,29,29,29,29,33,34,1,1,1,1,1,1,1,1,1,1,1,1,1,1,1,1,
1,1,1,1,1,1,1,1,1,1,1,1,1,1,1,1,1,1,1,1,1,1,1,1,1,1,1,1,1,1,1,1,1,1,1,1,1,1,1,1,1,1,1,1,1,1,
1,1,1,1,1,1,1,1,1,1,1,1,1,1,1,1,1,1,1,1,1,1,1,1,1,1,1,1,1,1,1,1,1,1,1,1,1,1,1,1,1,1,1,1,1,1,
1,1,1,1,1,1,1,1,1,1,1,1,1,1,1,1,1,1,1,1,1,1,1,1,1,1,1,1,1,1,1,1,1,1,1,1,1,1,1,1,1,1,1,1,1,1,
1,1,1,1,1,1,1,1,1,1,1,1,1,1,1,1,1,1,1,1,1,1,1,1,1,1,1,1,1,1,1,1,1,1,1,1,1,1,1,1,1,1,1,1,1,1,
1,1,1,1,1,1,1,1,1,1,1,1,1,1,1,1,1,1,1,1,1,1,1,1,1,1,1,1,1,1,1,1,1,1,1,1,1,1,1,1,1,1,1,1,1,1
</data>
 </layer>
</map>
