<?xml version="1.0" encoding="UTF-8"?>
<map version="1.10" tiledversion="1.12.2" orientation="orthogonal" renderorder="right-down" width="15" height="10" tilewidth="8" tileheight="8" infinite="0" nextlayerid="2" nextobjectid="1">
 <tileset firstgid="1" source="../../Graphics/Menus/MenuTiles.tsx"/>
 <layer id="1" name="Tile Layer 1" width="15" height="10">
  <data encoding="csv">
115,116,116,116,116,116,116,116,116,116,116,116,116,116,117,
118,10,10,10,10,10,10,10,10,10,10,10,10,10,119,
118,10,10,10,10,10,10,10,10,10,10,10,10,10,119,
118,10,10,10,10,10,10,10,10,10,10,10,10,10,119,
118,10,10,10,10,10,10,10,10,10,10,10,10,10,119,
118,10,10,10,10,10,10,10,10,10,10,10,10,10,119,
118,10,10,10,10,10,10,10,10,10,10,10,10,10,119,
118,10,10,10,10,10,10,10,10,10,10,10,10,10,119,
118,10,10,10,10,10,10,10,10,10,10,10,10,10,119,
120,121,121,121,121,121,121,121,121,121,121,121,121,121,122
</data>
 </layer>
</map>
